X:495
T:A Mover and a Shaker
T:My Robe is New
C:Shaker song
L:1/8
M:6/8
S:Colin Hume's website,  colinhume.com  - chords can also be printed below the stave.
Q:3/8=110
H:For Sharon Green
K:Am
P:A
|: A | "Am"c2d e2d | "/"e3 edc | "G"B2A ABc | "Em"B3 B2B |\
"F"A2A "G"G2F | "C"E3 E2B | "Am"c2A "G"BAG | "Am"A3- A2 :|
P:B
|: G | "Am"A2B "F"c2A | "C"AGE E2E | "Am"c2c "Dm"dcd | "E"e3 e2e |\
"Am"edc ABc | "Em"AGE E2B | "Am"c2A BAG | "Am"A3- A2 :|

